local/share/icons/dracula-icons-main/22/places/folder-html.svg

<?xml version="1.0" encoding="UTF-8"?>
<svg xmlns="http://www.w3.org/2000/svg" xmlns:xlink="http://www.w3.org/1999/xlink" width="22" height="22" viewBox="0 0 22 22">
<path fill-rule="nonzero" fill="rgb(100%, 100%, 100%)" fill-opacity="1" d="M 11 4 C 7.132812 4 4 7.132812 4 11 C 4 14.867188 7.132812 18 11 18 C 14.867188 18 18 14.867188 18 11 C 18 7.132812 14.867188 4 11 4 Z M 11 6 C 13.761719 6 16 8.238281 16 11 C 16 13.761719 13.761719 16 11 16 C 8.238281 16 6 13.761719 6 11 C 6 8.238281 8.238281 6 11 6 Z M 10.625 7.003906 C 10.492188 7.015625 10.359375 7.023438 10.230469 7.050781 C 9.972656 7.101562 9.730469 7.171875 9.492188 7.273438 C 8.363281 7.75 7.511719 8.742188 7.207031 9.953125 C 7.214844 9.960938 7.222656 9.964844 7.230469 9.976562 C 7.445312 10.199219 8 10.515625 8.410156 10.664062 C 8.636719 10.746094 9.070312 10.871094 9.367188 10.933594 C 9.667969 10.996094 9.867188 11.054688 9.835938 11.058594 C 9.804688 11.058594 9.671875 11.160156 9.539062 11.277344 C 9.289062 11.503906 9.160156 11.707031 9.050781 12.066406 C 8.992188 12.261719 8.996094 12.328125 9.074219 12.433594 C 9.121094 12.496094 9.332031 12.648438 9.539062 12.777344 C 9.75 12.90625 9.996094 13.085938 10.082031 13.171875 C 10.40625 13.484375 10.621094 14.046875 10.621094 14.597656 C 10.621094 14.734375 10.636719 14.808594 10.644531 14.84375 C 10.671875 14.84375 10.695312 14.839844 10.71875 14.84375 C 10.78125 14.820312 10.871094 14.789062 11.015625 14.71875 C 12.21875 14.117188 12.765625 13.339844 12.710938 12.3125 C 12.667969 11.488281 12.28125 11.191406 10.722656 10.859375 C 9.570312 10.617188 8.953125 10.199219 8.953125 9.679688 C 8.953125 9.542969 9 9.460938 9.148438 9.3125 C 9.308594 9.152344 9.34375 9.140625 9.46875 9.164062 C 9.546875 9.179688 9.753906 9.285156 9.910156 9.410156 C 10.265625 9.691406 10.4375 9.804688 10.625 9.804688 C 10.703125 9.804688 10.769531 9.792969 10.769531 9.78125 C 10.769531 9.769531 10.710938 9.675781 10.648438 9.582031 C 10.292969 9.058594 10.316406 8.082031 10.699219 7.25 C 10.757812 7.117188 10.800781 7.027344 10.796875 7.003906 C 10.742188 7.003906 10.675781 6.996094 10.625 7.003906 Z M 14.308594 8.847656 C 14.238281 8.800781 13.65625 9.410156 13.523438 9.679688 C 13.257812 10.210938 13.359375 10.5625 13.988281 11.230469 C 14.210938 11.460938 14.472656 11.773438 14.554688 11.917969 C 14.636719 12.0625 14.707031 12.183594 14.726562 12.164062 C 14.746094 12.140625 14.804688 11.976562 14.847656 11.796875 C 14.96875 11.324219 14.976562 10.5 14.847656 10.027344 C 14.75 9.65625 14.402344 8.902344 14.308594 8.847656 Z M 14.308594 8.847656 "/>
</svg>

<svg width="22" height="22" version="1.1" viewBox="0 0 22 22" xmlns="http://www.w3.org/2000/svg">
 <defs>
  <style id="current-color-scheme" type="text/css">.ColorScheme-Text { color:#FFFFFF; } .ColorScheme-Highlight { color:#5294e2; }</style>
 </defs>
 <path class="ColorScheme-Text" fill="currentColor" d="m11 4a7 7 0 0 0-7 7 7 7 0 0 0 7 7 7 7 0 0 0 7-7 7 7 0 0 0-7-7zm0 2a5 5 0 0 1 5 5 5 5 0 0 1-5 5 5 5 0 0 1-5-5 5 5 0 0 1 5-5zm-0.37695 1.002c-0.13229 0.01345-0.26446 0.02264-0.39258 0.04883-0.25722 0.05261-0.5019 0.12072-0.73828 0.2207-1.1297 0.4777-1.9815 1.4701-2.2852 2.6797 0.00779 0.0085 0.016421 0.01384 0.025391 0.02344 0.2119 0.22636 0.76793 0.54046 1.1797 0.68945 0.22518 0.08149 0.65931 0.2085 0.95703 0.26953 0.29774 0.06091 0.49613 0.12065 0.4668 0.12305-0.02933 0.0024-0.16254 0.10168-0.29492 0.2207-0.25251 0.22701-0.38111 0.42782-0.49023 0.78711-0.059878 0.19673-0.054498 0.26265 0.023438 0.36914 0.04703 0.06417 0.25763 0.21427 0.4668 0.34375s0.45378 0.30802 0.54102 0.39258c0.32499 0.315 0.54102 0.8786 0.54102 1.4258 0 0.14002 0.01321 0.21424 0.02344 0.24609 0.02658 0.0024 0.04756-0.0024 0.07422 0 0.06016-0.0232 0.15153-0.05125 0.29492-0.12305 1.2014-0.6014 1.7494-1.378 1.6953-2.4082-0.0431-0.82155-0.42784-1.12-1.9902-1.4512-1.1505-0.24383-1.7695-0.65834-1.7695-1.1797 0-0.13749 0.047066-0.21701 0.19727-0.36719 0.16143-0.16145 0.19357-0.17337 0.31836-0.14844 0.07946 0.01589 0.28558 0.12115 0.44336 0.24609 0.35518 0.28124 0.5292 0.39258 0.71289 0.39258 0.07825 0 0.14648-0.01172 0.14648-0.02344s-0.05888-0.10254-0.12305-0.19727c-0.35462-0.5225-0.33131-1.4993 0.05078-2.334 0.06-0.13104 0.10395-0.22092 0.09766-0.24609-0.05308 0.0031-0.11926-0.0055-0.17188 0zm3.6855 1.8438c-0.07148-0.04412-0.65157 0.56542-0.78516 0.83398-0.2649 0.5326-0.16559 0.88153 0.4668 1.5488 0.21909 0.23117 0.48191 0.54322 0.56445 0.68945 0.08253 0.14625 0.15254 0.26506 0.17187 0.24414 0.01934-0.02092 0.07768-0.18754 0.12305-0.36719 0.11923-0.4721 0.12853-1.2944 0-1.7695-0.09956-0.36801-0.44864-1.1226-0.54102-1.1797z"/>
</svg>
